packages/kaspersky-hexa-ui-icons/src/iconsSVGs/48/Gamepad.svg

<svg xmlns="http://www.w3.org/2000/svg" width="48" height="48" fill="none" viewBox="0 0 48 48"><path fill="currentColor" fill-rule="evenodd" d="M39.94 14.41c-.281-1.401-1.5111-2.4093-2.94-2.41h-5v2h-7V9c0-.5523.4477-1 1-1h4c1.6569 0 3-1.3431 3-3V0h-2v5c0 .5523-.4477 1-1 1h-4c-1.6569 0-3 1.3431-3 3v5h-7v-2h-5c-1.4289.0007-2.659 1.009-2.94 2.41C3.3005 15.7301.0044 20.0608 0 25v15c0 4.4183 3.5817 8 8 8s8-3.5817 8-8v-3c0-.5523.4477-1 1-1h14c.5523 0 1 .4477 1 1v3c0 4.4183 3.5817 8 8 8s8-3.5817 8-8V25c-.0044-4.9392-3.3005-9.2699-8.06-10.59M31 16v6H17v-6zm15 24c0 3.3137-2.6863 6-6 6s-6-2.6863-6-6v-3c0-1.6569-1.3431-3-3-3H17c-1.6569 0-3 1.3431-3 3v3c0 3.3137-2.6863 6-6 6s-6-2.6863-6-6V25c.004-4.4461 3.2542-8.2231 7.65-8.89.15 0 .29 0 .44-.06a9.1 9.1 0 0 1 .91 0h4v8h18v-8h4a9.1 9.1 0 0 1 .91 0c.15 0 .29 0 .44.06 4.3958.6669 7.646 4.4439 7.65 8.89zM10 27h3v2h-3v3H8v-3H5v-2h3v-3h2zm28-1c1.1046 0 2-.8954 2-2s-.8954-2-2-2-2 .8954-2 2 .8954 2 2 2m0 4c-1.1046 0-2 .8954-2 2s.8954 2 2 2 2-.8954 2-2-.8954-2-2-2m-4-4c-1.1046 0-2 .8954-2 2s.8954 2 2 2 2-.8954 2-2-.8954-2-2-2m6 2c0 1.1046.8954 2 2 2s2-.8954 2-2-.8954-2-2-2-2 .8954-2 2" clip-rule="evenodd"/></svg>

<svg width="48" height="48" viewBox="0 0 48 48" fill="none" xmlns="http://www.w3.org/2000/svg">
<path fill-rule="evenodd" clip-rule="evenodd" d="M39.94 14.41C39.659 13.009 38.4289 12.0007 37 12H32V14H25V9C25 8.44771 25.4477 8 26 8H30C31.6569 8 33 6.65685 33 5V0H31V5C31 5.55228 30.5523 6 30 6H26C24.3431 6 23 7.34315 23 9V14H16V12H11C9.57112 12.0007 8.34101 13.009 8.06 14.41C3.30047 15.7301 0.00441449 20.0608 0 25V40C0 44.4183 3.58172 48 8 48C12.4183 48 16 44.4183 16 40V37C16 36.4477 16.4477 36 17 36H31C31.5523 36 32 36.4477 32 37V40C32 44.4183 35.5817 48 40 48C44.4183 48 48 44.4183 48 40V25C47.9956 20.0608 44.6995 15.7301 39.94 14.41ZM31 16V22H17V16H31ZM46 40C46 43.3137 43.3137 46 40 46C36.6863 46 34 43.3137 34 40V37C34 35.3431 32.6569 34 31 34H17C15.3431 34 14 35.3431 14 37V40C14 43.3137 11.3137 46 8 46C4.68629 46 2 43.3137 2 40V25C2.00404 20.5539 5.25416 16.7769 9.65 16.11C9.8 16.11 9.94 16.11 10.09 16.05C10.3931 16.0348 10.6969 16.0348 11 16.05H15V24.05H33V16.05H37C37.3031 16.0348 37.6069 16.0348 37.91 16.05C38.06 16.05 38.2 16.05 38.35 16.11C42.7458 16.7769 45.996 20.5539 46 25V40ZM10 27H13V29H10V32H8V29H5V27H8V24H10V27ZM38 26C39.1046 26 40 25.1046 40 24C40 22.8954 39.1046 22 38 22C36.8954 22 36 22.8954 36 24C36 25.1046 36.8954 26 38 26ZM38 30C36.8954 30 36 30.8954 36 32C36 33.1046 36.8954 34 38 34C39.1046 34 40 33.1046 40 32C40 30.8954 39.1046 30 38 30ZM34 26C32.8954 26 32 26.8954 32 28C32 29.1046 32.8954 30 34 30C35.1046 30 36 29.1046 36 28C36 26.8954 35.1046 26 34 26ZM40 28C40 29.1046 40.8954 30 42 30C43.1046 30 44 29.1046 44 28C44 26.8954 43.1046 26 42 26C40.8954 26 40 26.8954 40 28Z"  fill="currentColor"/>
</svg>
